X:179
T:Mary McMahon* (reel) 
B:CRE2.269 (gan ainm)
F:file ID: cre.2/179mary_mc
N:Recorded by Johnny Cronin as "Maureen's Fiddle"; 
also known as "Micko Russell's" after the Clare 
whistle player who provide the tune to Breathnach.
L:1/8
M:C
R:reel
Q:180
K:D
ag|fgec d2AG|FGAB =cAA2|Adde fdd=c|AB=cA g2ag|
fgec d2AG|FGAB =cAG2|Addd fdd=c|AB=cA d2:|
de|:fefg a4|bgag fdde|fefg a2a2|bgaf g4|
fefg a2a2|bgag fddd|b2af gbag|fdef gbag:|

%%%

